modules/hawcons-filled/icons/icon-14-two-fingers-tap.svg

<?xml version="1.0" encoding="UTF-8" standalone="no"?>
<svg width="32px" height="32px" viewBox="0 0 32 32" version="1.1" xmlns="http://www.w3.org/2000/svg" xmlns:xlink="http://www.w3.org/1999/xlink" xmlns:sketch="http://www.bohemiancoding.com/sketch/ns">
    <!-- Generator: Sketch 3.0.3 (7891) - http://www.bohemiancoding.com/sketch -->
    <title>icon 14 two fingers tap</title>
    <desc>Created with Sketch.</desc>
    <defs></defs>
    <g id="Page-1" stroke="none" stroke-width="1" fill="none" fill-rule="evenodd" sketch:type="MSPage">
        <g id="icon-14-two-fingers-tap" sketch:type="MSArtboardGroup" fill="#929292">
            <path d="M20.1151466,7.94949144 C20.7337402,7.3182229 21.1151466,6.4536526 21.1151466,5.5 C21.1151466,3.56700328 19.5481434,2 17.6151466,2 C16.183506,2 14.9526263,2.85955899 14.4104349,4.09074953 C14.1549385,4.03138458 13.8887077,4 13.6151466,4 C11.6821499,4 10.1151466,5.56700328 10.1151466,7.5 C10.1151466,8.4536526 10.4965531,9.3182229 11.1151466,9.94949144 L11.1151466,7.50098635 C11.1151466,6.12893087 12.2344348,5 13.6151466,5 C14.180005,5 14.6985353,5.18482109 15.1151466,5.496913 L15.1151466,5.49144137 C15.1151466,4.12905121 16.2344348,3 17.6151466,3 C19.0054846,3 20.1151466,4.1154563 20.1151466,5.49144137 L20.1151466,7.94949144 L20.1151466,7.94949144 L20.1151466,7.94949144 Z M19.1151466,5.49089813 C19.1151466,4.66749783 18.4493494,4 17.6151466,4 C16.7867195,4 16.1151466,4.67622006 16.1151466,5.49089813 L16.1151466,14.4325233 L16.1151466,17 L15.1151466,17 L15.1151466,14.5 L15.1151466,7.50863659 C15.1151466,6.67543961 14.4493494,6 13.6151466,6 C12.7867195,6 12.1151466,6.66642015 12.1151466,7.50863659 L12.1151466,17.7983451 C10.056747,15.5979243 7.34677642,13.1791206 6.23617935,14.2957153 C5.14900956,15.3887562 7.95050863,18.4007216 11.8625221,24.9830936 C13.6251425,27.9488875 15.8554315,29.9995418 19.6151466,30 C23.7572825,30 27.1151466,26.6421358 27.1151466,22.5 L27.1151466,19.2468012 L27.1151466,14.5063976 C27.1151466,13.6744372 26.4493494,13 25.6151466,13 C24.7867195,13 24.1151466,13.6764628 24.1151466,14.5063976 L24.1151466,16.7497253 L24.1151466,17 L23.1151466,17 L23.1151466,14.6781559 L23.1151466,13.4912653 C23.1151466,12.6676622 22.4493494,12 21.6151466,12 C20.7867195,12 20.1151466,12.6625444 20.1151466,13.4912653 L20.1151466,14.5082011 L20.1151466,16 L19.1151466,16 L19.1151466,14.5082011 L19.1151466,5.49089813 L19.1151466,5.49089813 Z" id="two-fingers-tap" sketch:type="MSShapeGroup"></path>
        </g>
    </g>
</svg>

<svg width="32" height="32" viewBox="0 0 32 32" xmlns="http://www.w3.org/2000/svg"><path d="M20.115 7.95A3.5 3.5 0 1 0 14.41 4.09a3.5 3.5 0 0 0-3.295 5.859V7.5A2.506 2.506 0 0 1 13.615 5a2.49 2.49 0 0 1 1.5.497V5.49A2.504 2.504 0 0 1 17.615 3a2.49 2.49 0 0 1 2.5 2.491V7.95zm-1-2.46c0-.823-.666-1.49-1.5-1.49-.828 0-1.5.676-1.5 1.49V17h-1V7.509a1.5 1.5 0 1 0-3 0v10.29c-2.058-2.201-4.768-4.62-5.879-3.503-1.087 1.093 1.715 4.105 5.627 10.687C13.625 27.95 15.855 30 19.615 30a7.5 7.5 0 0 0 7.5-7.5v-7.993a1.5 1.5 0 1 0-3 0V17h-1V13.491c0-.823-.666-1.491-1.5-1.491-.828 0-1.5.663-1.5 1.491V16h-1V5.491z" fill="#929292" fill-rule="evenodd"/></svg>
